dist/svg/static/parking-in-left-long-large.svg

<svg xmlns="http://www.w3.org/2000/svg" width="48" height="48" viewBox="0 0 48 48"><g fill="none" stroke="currentColor" stroke-miterlimit="10"><path d="M24.5 2v4.5H40c2.2 0 3.5 1.3 3.5 3.5v27c0 2.2-1.3 4.5-3.5 4.5H24.5V46"/><path d="M33.5 36.5v-9c0-5-4-9-9-9h-1c-5 0-9-4-9-9V2"/><path d="M39 31l-5.5 5.5L28 31"/></g></svg>

<?xml version="1.0" encoding="UTF-8" standalone="no"?>
<svg width="48px" height="48px" viewBox="0 0 48 48" version="1.1" xmlns="http://www.w3.org/2000/svg" xmlns:xlink="http://www.w3.org/1999/xlink">
    <!-- Generator: sketchtool 46.2 (44496) - http://www.bohemiancoding.com/sketch -->
    <title>parking-in-left-long-large</title>
    <desc>Created with sketchtool.</desc>
    <defs></defs>
    <g id="icons-published" stroke="none" stroke-width="1" fill="none" fill-rule="evenodd">
        <g id="briefing" transform="translate(-288.000000, -1178.000000)"></g>
        <g id="parking-in-left-long-large" stroke="#000000">
            <path d="M24.5,2 L24.5,6.5 L40,6.5 C42.2,6.5 43.5,7.8 43.5,10 L43.5,37 C43.5,39.2 42.2,41.5 40,41.5 L24.5,41.5 L24.5,46" id="Shape"></path>
            <path d="M33.5,36.5 L33.5,27.5 C33.5,22.5 29.5,18.5 24.5,18.5 L23.5,18.5 C18.5,18.5 14.5,14.5 14.5,9.5 L14.5,2" id="Shape"></path>
            <polyline id="Shape" points="39 31 33.5 36.5 28 31"></polyline>
        </g>
    </g>
</svg>
